X:7804
T:Up and about in the Morning
O:england
R:jig
D:Matt Molloy & Sean Keane: Contentment is Wealth
D:Jerry O'Sullivan
M:6/8
L:1/8
K:Dmix
~A3 ~D3|A2D A2d|cAG EFG|EFD EFG|
~A3 ~D3|A2D A2d|cAG EGE|1 F2D D3:|2 F2D DFA||
|:d2e fed|efe dcA|A2G EFG|EFD EFA|
d2e fed|~e3 dcA|A2G EGE|F2D DFA:|
|:~d3 dcA|ded dcA|~A3 AGE|ABA AB^c|
d2e fed|efe dcA|A2G EGE|1 F2D DFA:|2 F2D D3|
